X:0761
T:The Dutch Trot.
M:C
L:1/16
Q:1/4=120
I: || ||
Z:Jack Campin * www.campin.me.uk * 2009
K:D
FG|AF3``G3`B A2F2`d2A2|G2BA GFED F2(E2E2) \
FG|AF3``G3`B A2F2`d2F2|G2AB ABAG F2(D2D2)
FG|AF3``G3`B A2F2`d2A2|G2BA GFED F2(E2E2) \
FG|AGFA GABG ABcA d3`e|gabg abag f2`d2d2||
fg|a2f2`d2ef g2e2`f2d2|g2ba gfed c2(e2e2) \
fg|a2f2`d2ef g2e2`f2d2|g2ab abag f2(d2d2)
fg|a2f2`d2ef g2e2`f2d2|g2ba gfed c2(e2e2) \
fg|agfe fedc dcBA BAGF|GABG ABAG F2`D2D2|]

